src/assets/icons/notification.svg

<svg width="24" height="24" viewBox="0 0 24 24" fill="none" xmlns="http://www.w3.org/2000/svg">
<path d="M20.19 14.06L19.06 12.18C18.81 11.77 18.59 10.98 18.59 10.5V8.63005C18.59 5.00005 15.64 2.05005 12.02 2.05005C8.39002 2.06005 5.44002 5.00005 5.44002 8.63005V10.49C5.44002 10.97 5.22002 11.76 4.98002 12.17L3.85002 14.05C3.42002 14.78 3.32002 15.61 3.59002 16.33C3.86002 17.06 4.47002 17.64 5.27002 17.9C6.35002 18.26 7.44002 18.52 8.55002 18.71C8.66002 18.73 8.77002 18.74 8.88002 18.76C9.02002 18.7801 9.17002 18.8 9.32002 18.82C9.58002 18.8601 9.84002 18.89 10.11 18.91C10.74 18.97 11.38 19 12.02 19C12.65 19 13.28 18.97 13.9 18.91C14.13 18.89 14.36 18.8701 14.58 18.84C14.76 18.82 14.94 18.8001 15.12 18.7701C15.23 18.76 15.34 18.74 15.45 18.72C16.57 18.54 17.68 18.26 18.76 17.9C19.53 17.64 20.12 17.06 20.4 16.32C20.68 15.57 20.6 14.75 20.19 14.06ZM12.75 10C12.75 10.42 12.41 10.76 11.99 10.76C11.57 10.76 11.23 10.42 11.23 10V6.90005C11.23 6.48005 11.57 6.14005 11.99 6.14005C12.41 6.14005 12.75 6.48005 12.75 6.90005V10Z" fill="#161819"/>
<path d="M14.83 20.01C14.41 21.17 13.3 22 12 22C11.21 22 10.43 21.68 9.87999 21.11C9.55999 20.81 9.31999 20.41 9.17999 20C9.30999 20.02 9.43999 20.03 9.57999 20.05C9.80999 20.08 10.05 20.11 10.29 20.13C10.86 20.18 11.44 20.21 12.02 20.21C12.59 20.21 13.16 20.18 13.72 20.13C13.93 20.11 14.14 20.1 14.34 20.07C14.5 20.05 14.66 20.03 14.83 20.01Z" fill="#161819"/>
</svg>

<svg xmlns="http://www.w3.org/2000/svg" width="24" height="24" fill="none"><path fill="#161819" d="m20.19 14.06-1.13-1.88c-.25-.41-.47-1.2-.47-1.68V8.63c0-3.63-2.95-6.58-6.57-6.58C8.39 2.06 5.44 5 5.44 8.63v1.86c0 .48-.22 1.27-.46 1.68l-1.13 1.88c-.43.73-.53 1.56-.26 2.28.27.73.88 1.31 1.68 1.57 1.08.36 2.17.62 3.28.81.11.02.22.03.33.05l.44.06c.26.04.52.07.79.09a20 20 0 0 0 3.79 0c.23-.02.46-.04.68-.07.18-.02.36-.04.54-.07.11-.01.22-.03.33-.05 1.12-.18 2.23-.46 3.31-.82a2.65 2.65 0 0 0 1.64-1.58c.28-.75.2-1.57-.21-2.26M12.75 10a.76.76 0 1 1-1.52 0V6.9a.76.76 0 1 1 1.52 0zM14.83 20.01A3.01 3.01 0 0 1 12 22c-.79 0-1.57-.32-2.12-.89-.32-.3-.56-.7-.7-1.11.13.02.26.03.4.05.23.03.47.06.71.08.57.05 1.15.08 1.73.08.57 0 1.14-.03 1.7-.08.21-.02.42-.03.62-.06z"/></svg>
